public/assets/home/60f8d0c657c9a88fe4b40335_Exploded Head.svg

<svg width="93" height="86" viewBox="0 0 93 86" fill="none" xmlns="http://www.w3.org/2000/svg">
<mask id="mask0" mask-type="alpha" maskUnits="userSpaceOnUse" x="0" y="0" width="93" height="85">
<path d="M2.67639 6.65808C2.67639 4.4509 4.46567 2.66162 6.67285 2.66162H86.6021C88.8092 2.66162 90.5985 4.4509 90.5985 6.65808V78.5944C90.5985 80.8016 88.8093 82.5908 86.6021 82.5908H6.67285C4.46567 82.5908 2.67639 80.8016 2.67639 78.5944V6.65808Z" fill="#4A4A4E" stroke="#1F2024" stroke-width="3.99646"/>
</mask>
<g mask="url(#mask0)">
<g filter="url(#filter0_i)">
<path d="M2.67639 6.65808C2.67639 4.4509 4.46567 2.66162 6.67285 2.66162H86.6021C88.8092 2.66162 90.5985 4.4509 90.5985 6.65808V78.5944C90.5985 80.8016 88.8093 82.5908 86.6021 82.5908H6.67285C4.46567 82.5908 2.67639 80.8016 2.67639 78.5944V6.65808Z" fill="#4A4A4E"/>
</g>
<path d="M2.67639 6.65808C2.67639 4.4509 4.46567 2.66162 6.67285 2.66162H86.6021C88.8092 2.66162 90.5985 4.4509 90.5985 6.65808V78.5944C90.5985 80.8016 88.8093 82.5908 86.6021 82.5908H6.67285C4.46567 82.5908 2.67639 80.8016 2.67639 78.5944V6.65808Z" stroke="#1F2024" stroke-width="3.99646"/>
<g filter="url(#filter1_dii)">
<circle cx="30.6517" cy="42.6263" r="29.9735" fill="#797A7C"/>
<circle cx="30.6517" cy="42.6263" r="29.9735" stroke="#1F2024" stroke-width="3.99646"/>
</g>
<rect x="79.1085" y="36.1323" width="29.4739" height="7.99292" rx="3.99646" fill="#ACACAE" stroke="#1F2024" stroke-width="3.99646" stroke-linejoin="round"/>
<rect x="50.1342" y="28.1396" width="29.9735" height="23.9788" rx="11.9894" fill="#ACACAE" stroke="#1F2024" stroke-width="3.99646"/>
<g filter="url(#filter2_ii)">
<circle cx="68.1183" cy="40.129" r="11.9894" fill="white"/>
</g>
<circle cx="68.1183" cy="40.129" r="11.9894" stroke="#1F2024" stroke-width="3.99646"/>
<circle cx="72.115" cy="40.1288" r="3.99646" fill="#FE204F" stroke="#1F2024" stroke-width="3.99646"/>
<g filter="url(#filter3_ii)">
<circle cx="82.6054" cy="72.1004" r="13.9876" fill="#ACACAE"/>
</g>
<circle cx="82.6054" cy="72.1004" r="13.9876" stroke="#1F2024" stroke-width="3.99646"/>
<g filter="url(#filter4_ii)">
<circle cx="6.67279" cy="76.097" r="13.9876" fill="#ACACAE"/>
</g>
<circle cx="6.67279" cy="76.097" r="13.9876" stroke="#1F2024" stroke-width="3.99646"/>
<g filter="url(#filter5_d)">
<rect x="42.6409" y="-5.33105" width="7.99292" height="43.9611" rx="3.99646" fill="#ACACAE" stroke="#1F2024" stroke-width="3.99646" stroke-linejoin="round"/>
<g filter="url(#filter6_ii)">
<circle cx="46.6374" cy="40.1285" r="5.99469" fill="#ACACAE"/>
</g>
<circle cx="46.6374" cy="40.1285" r="5.99469" stroke="#1F2024" stroke-width="3.99646"/>
<rect x="29.153" y="36.1323" width="13.4881" height="7.99292" rx="3.99646" fill="#ACACAE" stroke="#1F2024" stroke-width="3.99646" stroke-linejoin="round"/>
<path d="M26.655 52.1177H66.1201V74.0982H26.655V52.1177Z" fill="#ACACAE" stroke="#1F2024" stroke-width="3.99646" stroke-linejoin="round"/>
<path d="M34.648 68.1035H62.1236V74.0982H26.655L34.648 68.1035Z" fill="#797A7C" stroke="#1F2024" stroke-width="3.99646" stroke-linejoin="round"/>
<rect x="34.6481" y="52.1177" width="27.4757" height="15.9858" fill="white" stroke="#1F2024" stroke-width="3.99646" stroke-linejoin="round"/>
<rect x="41.6418" y="58.1123" width="0.499558" height="3.99646" fill="white" stroke="#1F2024" stroke-width="3.99646" stroke-linejoin="round"/>
<rect x="48.136" y="58.1123" width="0.499558" height="3.99646" fill="white" stroke="#1F2024" stroke-width="3.99646" stroke-linejoin="round"/>
<rect x="54.6305" y="58.1123" width="0.499558" height="3.99646" fill="white" stroke="#1F2024" stroke-width="3.99646" stroke-linejoin="round"/>
<rect x="-3.81799" y="57.6133" width="33.4704" height="7.99292" rx="3.99646" fill="#797A7C" stroke="#1F2024" stroke-width="3.99646" stroke-linejoin="round"/>
</g>
<rect x="6.67285" y="28.1396" width="29.9735" height="23.9788" rx="11.9894" fill="#ACACAE" stroke="#1F2024" stroke-width="3.99646"/>
<g filter="url(#filter7_ii)">
<circle cx="24.6567" cy="40.129" r="11.9894" fill="white"/>
</g>
<circle cx="24.6567" cy="40.129" r="11.9894" stroke="#1F2024" stroke-width="3.99646"/>
<circle cx="28.6533" cy="40.1293" r="3.99646" fill="#FE204F" stroke="#1F2024" stroke-width="3.99646"/>
<rect x="-18.3051" y="36.1323" width="29.4739" height="7.99292" rx="3.99646" fill="#ACACAE" stroke="#1F2024" stroke-width="3.99646" stroke-linejoin="round"/>
<path d="M2.67639 6.67227C2.67639 4.45725 4.47202 2.66162 6.68705 2.66162H86.9001C89.1151 2.66162 90.9108 4.45725 90.9108 6.67227V78.864C90.9108 81.0791 89.1151 82.8747 86.9001 82.8747H6.68704C4.47202 82.8747 2.67639 81.0791 2.67639 78.864V6.67227Z" stroke="#1F2024" stroke-width="4.01065"/>
</g>
<defs>
<filter id="filter0_i" x="0.678101" y="0.663574" width="91.9186" height="83.9257" filterUnits="userSpaceOnUse" color-interpolation-filters="sRGB">
<feFlood flood-opacity="0" result="BackgroundImageFix"/>
<feBlend mode="normal" in="SourceGraphic" in2="BackgroundImageFix" result="shape"/>
<feColorMatrix in="SourceAlpha" type="matrix" values="0 0 0 0 0 0 0 0 0 0 0 0 0 0 0 0 0 0 127 0" result="hardAlpha"/>
<feOffset dx="-11.9894" dy="3.99646"/>
<feComposite in2="hardAlpha" operator="arithmetic" k2="-1" k3="1"/>
<feColorMatrix type="matrix" values="0 0 0 0 1 0 0 0 0 1 0 0 0 0 1 0 0 0 0.25 0"/>
<feBlend mode="normal" in2="shape" result="effect1_innerShadow"/>
</filter>
<filter id="filter1_dii" x="-5.31653" y="10.6548" width="67.9398" height="63.9434" filterUnits="userSpaceOnUse" color-interpolation-filters="sRGB">
<feFlood flood-opacity="0" result="BackgroundImageFix"/>
<feColorMatrix in="SourceAlpha" type="matrix" values="0 0 0 0 0 0 0 0 0 0 0 0 0 0 0 0 0 0 127 0"/>
<feOffset dx="-3.99646"/>
<feColorMatrix type="matrix" values="0 0 0 0 0 0 0 0 0 0 0 0 0 0 0 0 0 0 0.25 0"/>
<feBlend mode="normal" in2="BackgroundImageFix" result="effect1_dropShadow"/>
<feBlend mode="normal" in="SourceGraphic" in2="effect1_dropShadow" result="shape"/>
<feColorMatrix in="SourceAlpha" type="matrix" values="0 0 0 0 0 0 0 0 0 0 0 0 0 0 0 0 0 0 127 0" result="hardAlpha"/>
<feOffset dx="7.99292"/>
<feComposite in2="hardAlpha" operator="arithmetic" k2="-1" k3="1"/>
<feColorMatrix type="matrix" values="0 0 0 0 0 0 0 0 0 0 0 0 0 0 0 0 0 0 0.25 0"/>
<feBlend mode="normal" in2="shape" result="effect2_innerShadow"/>
<feColorMatrix in="SourceAlpha" type="matrix" values="0 0 0 0 0 0 0 0 0 0 0 0 0 0 0 0 0 0 127 0" result="hardAlpha"/>
<feOffset dx="-7.99292" dy="3.99646"/>
<feComposite in2="hardAlpha" operator="arithmetic" k2="-1" k3="1"/>
<feColorMatrix type="matrix" values="0 0 0 0 1 0 0 0 0 1 0 0 0 0 1 0 0 0 0.25 0"/>
<feBlend mode="normal" in2="effect2_innerShadow" result="effect3_innerShadow"/>
</filter>
<filter id="filter2_ii" x="54.1306" y="26.1416" width="27.9752" height="27.9752" filterUnits="userSpaceOnUse" color-interpolation-filters="sRGB">
<feFlood flood-opacity="0" result="BackgroundImageFix"/>
<feBlend mode="normal" in="SourceGraphic" in2="BackgroundImageFix" result="shape"/>
<feColorMatrix in="SourceAlpha" type="matrix" values="0 0 0 0 0 0 0 0 0 0 0 0 0 0 0 0 0 0 127 0" result="hardAlpha"/>
<feOffset dx="7.99292"/>
<feComposite in2="hardAlpha" operator="arithmetic" k2="-1" k3="1"/>
<feColorMatrix type="matrix" values="0 0 0 0 0 0 0 0 0 0 0 0 0 0 0 0 0 0 0.25 0"/>
<feBlend mode="normal" in2="shape" result="effect1_innerShadow"/>
<feColorMatrix in="SourceAlpha" type="matrix" values="0 0 0 0 0 0 0 0 0 0 0 0 0 0 0 0 0 0 127 0" result="hardAlpha"/>
<feOffset dx="-7.99292" dy="3.99646"/>
<feComposite in2="hardAlpha" operator="arithmetic" k2="-1" k3="1"/>
<feColorMatrix type="matrix" values="0 0 0 0 1 0 0 0 0 1 0 0 0 0 1 0 0 0 0.25 0"/>
<feBlend mode="normal" in2="effect1_innerShadow" result="effect2_innerShadow"/>
</filter>
<filter id="filter3_ii" x="66.6195" y="56.1147" width="31.9717" height="31.9717" filterUnits="userSpaceOnUse" color-interpolation-filters="sRGB">
<feFlood flood-opacity="0" result="BackgroundImageFix"/>
<feBlend mode="normal" in="SourceGraphic" in2="BackgroundImageFix" result="shape"/>
<feColorMatrix in="SourceAlpha" type="matrix" values="0 0 0 0 0 0 0 0 0 0 0 0 0 0 0 0 0 0 127 0" result="hardAlpha"/>
<feOffset dx="7.99292"/>
<feComposite in2="hardAlpha" operator="arithmetic" k2="-1" k3="1"/>
<feColorMatrix type="matrix" values="0 0 0 0 0 0 0 0 0 0 0 0 0 0 0 0 0 0 0.25 0"/>
<feBlend mode="normal" in2="shape" result="effect1_innerShadow"/>
<feColorMatrix in="SourceAlpha" type="matrix" values="0 0 0 0 0 0 0 0 0 0 0 0 0 0 0 0 0 0 127 0" result="hardAlpha"/>
<feOffset dx="-7.99292" dy="3.99646"/>
<feComposite in2="hardAlpha" operator="arithmetic" k2="-1" k3="1"/>
<feColorMatrix type="matrix" values="0 0 0 0 1 0 0 0 0 1 0 0 0 0 1 0 0 0 0.25 0"/>
<feBlend mode="normal" in2="effect1_innerShadow" result="effect2_innerShadow"/>
</filter>
<filter id="filter4_ii" x="-9.31311" y="60.1113" width="31.9717" height="31.9717" filterUnits="userSpaceOnUse" color-interpolation-filters="sRGB">
<feFlood flood-opacity="0" result="BackgroundImageFix"/>
<feBlend mode="normal" in="SourceGraphic" in2="BackgroundImageFix" result="shape"/>
<feColorMatrix in="SourceAlpha" type="matrix" values="0 0 0 0 0 0 0 0 0 0 0 0 0 0 0 0 0 0 127 0" result="hardAlpha"/>
<feOffset dx="7.99292"/>
<feComposite in2="hardAlpha" operator="arithmetic" k2="-1" k3="1"/>
<feColorMatrix type="matrix" values="0 0 0 0 0 0 0 0 0 0 0 0 0 0 0 0 0 0 0.25 0"/>
<feBlend mode="normal" in2="shape" result="effect1_innerShadow"/>
<feColorMatrix in="SourceAlpha" type="matrix" values="0 0 0 0 0 0 0 0 0 0 0 0 0 0 0 0 0 0 127 0" result="hardAlpha"/>
<feOffset dx="-7.99292" dy="3.99646"/>
<feComposite in2="hardAlpha" operator="arithmetic" k2="-1" k3="1"/>
<feColorMatrix type="matrix" values="0 0 0 0 1 0 0 0 0 1 0 0 0 0 1 0 0 0 0.25 0"/>
<feBlend mode="normal" in2="effect1_innerShadow" result="effect2_innerShadow"/>
</filter>
<filter id="filter5_d" x="-9.81275" y="-7.3291" width="77.931" height="83.4257" filterUnits="userSpaceOnUse" color-interpolation-filters="sRGB">
<feFlood flood-opacity="0" result="BackgroundImageFix"/>
<feColorMatrix in="SourceAlpha" type="matrix" values="0 0 0 0 0 0 0 0 0 0 0 0 0 0 0 0 0 0 127 0"/>
<feOffset dx="-3.99646"/>
<feColorMatrix type="matrix" values="0 0 0 0 0 0 0 0 0 0 0 0 0 0 0 0 0 0 0.25 0"/>
<feBlend mode="normal" in2="BackgroundImageFix" result="effect1_dropShadow"/>
<feBlend mode="normal" in="SourceGraphic" in2="effect1_dropShadow" result="shape"/>
</filter>
<filter id="filter6_ii" x="38.6444" y="32.1357" width="15.9858" height="15.9858" filterUnits="userSpaceOnUse" color-interpolation-filters="sRGB">
<feFlood flood-opacity="0" result="BackgroundImageFix"/>
<feBlend mode="normal" in="SourceGraphic" in2="BackgroundImageFix" result="shape"/>
<feColorMatrix in="SourceAlpha" type="matrix" values="0 0 0 0 0 0 0 0 0 0 0 0 0 0 0 0 0 0 127 0" result="hardAlpha"/>
<feOffset dx="7.99292"/>
<feComposite in2="hardAlpha" operator="arithmetic" k2="-1" k3="1"/>
<feColorMatrix type="matrix" values="0 0 0 0 0 0 0 0 0 0 0 0 0 0 0 0 0 0 0.25 0"/>
<feBlend mode="normal" in2="shape" result="effect1_innerShadow"/>
<feColorMatrix in="SourceAlpha" type="matrix" values="0 0 0 0 0 0 0 0 0 0 0 0 0 0 0 0 0 0 127 0" result="hardAlpha"/>
<feOffset dx="-7.99292" dy="3.99646"/>
<feComposite in2="hardAlpha" operator="arithmetic" k2="-1" k3="1"/>
<feColorMatrix type="matrix" values="0 0 0 0 1 0 0 0 0 1 0 0 0 0 1 0 0 0 0.25 0"/>
<feBlend mode="normal" in2="effect1_innerShadow" result="effect2_innerShadow"/>
</filter>
<filter id="filter7_ii" x="10.6691" y="26.1416" width="27.9752" height="27.9752" filterUnits="userSpaceOnUse" color-interpolation-filters="sRGB">
<feFlood flood-opacity="0" result="BackgroundImageFix"/>
<feBlend mode="normal" in="SourceGraphic" in2="BackgroundImageFix" result="shape"/>
<feColorMatrix in="SourceAlpha" type="matrix" values="0 0 0 0 0 0 0 0 0 0 0 0 0 0 0 0 0 0 127 0" result="hardAlpha"/>
<feOffset dx="7.99292"/>
<feComposite in2="hardAlpha" operator="arithmetic" k2="-1" k3="1"/>
<feColorMatrix type="matrix" values="0 0 0 0 0 0 0 0 0 0 0 0 0 0 0 0 0 0 0.25 0"/>
<feBlend mode="normal" in2="shape" result="effect1_innerShadow"/>
<feColorMatrix in="SourceAlpha" type="matrix" values="0 0 0 0 0 0 0 0 0 0 0 0 0 0 0 0 0 0 127 0" result="hardAlpha"/>
<feOffset dx="-7.99292" dy="3.99646"/>
<feComposite in2="hardAlpha" operator="arithmetic" k2="-1" k3="1"/>
<feColorMatrix type="matrix" values="0 0 0 0 1 0 0 0 0 1 0 0 0 0 1 0 0 0 0.25 0"/>
<feBlend mode="normal" in2="effect1_innerShadow" result="effect2_innerShadow"/>
</filter>
</defs>
</svg>

<svg xmlns="http://www.w3.org/2000/svg" width="93" height="86" fill="none"><mask id="a" width="93" height="85" x="0" y="0" mask-type="alpha" maskUnits="userSpaceOnUse"><path fill="#4A4A4E" stroke="#1F2024" stroke-width="3.996" d="M2.676 6.658a3.996 3.996 0 0 1 3.997-3.996h79.93a3.996 3.996 0 0 1 3.996 3.996v71.936a3.996 3.996 0 0 1-3.997 3.997H6.672a3.996 3.996 0 0 1-3.996-3.997V6.658Z"/></mask><g mask="url(#a)"><g filter="url(#b)"><path fill="#4A4A4E" d="M2.676 6.658a3.996 3.996 0 0 1 3.997-3.996h79.93a3.996 3.996 0 0 1 3.996 3.996v71.936a3.996 3.996 0 0 1-3.997 3.997H6.672a3.996 3.996 0 0 1-3.996-3.997V6.658Z"/></g><path stroke="#1F2024" stroke-width="3.996" d="M2.676 6.658a3.996 3.996 0 0 1 3.997-3.996h79.93a3.996 3.996 0 0 1 3.996 3.996v71.936a3.996 3.996 0 0 1-3.997 3.997H6.672a3.996 3.996 0 0 1-3.996-3.997V6.658Z"/><g filter="url(#c)"><circle cx="30.652" cy="42.626" r="29.974" fill="#797A7C"/><circle cx="30.652" cy="42.626" r="29.974" stroke="#1F2024" stroke-width="3.996"/></g><rect width="29.474" height="7.993" x="79.109" y="36.132" fill="#ACACAE" stroke="#1F2024" stroke-linejoin="round" stroke-width="3.996" rx="3.996"/><rect width="29.974" height="23.979" x="50.134" y="28.14" fill="#ACACAE" stroke="#1F2024" stroke-width="3.996" rx="11.989"/><g filter="url(#d)"><circle cx="68.118" cy="40.129" r="11.989" fill="#fff"/></g><circle cx="68.118" cy="40.129" r="11.989" stroke="#1F2024" stroke-width="3.996"/><circle cx="72.115" cy="40.129" r="3.996" fill="#FE204F" stroke="#1F2024" stroke-width="3.996"/><g filter="url(#e)"><circle cx="82.605" cy="72.1" r="13.988" fill="#ACACAE"/></g><circle cx="82.605" cy="72.1" r="13.988" stroke="#1F2024" stroke-width="3.996"/><g filter="url(#f)"><circle cx="6.673" cy="76.097" r="13.988" fill="#ACACAE"/></g><circle cx="6.673" cy="76.097" r="13.988" stroke="#1F2024" stroke-width="3.996"/><g filter="url(#g)"><rect width="7.993" height="43.961" x="42.641" y="-5.331" fill="#ACACAE" stroke="#1F2024" stroke-linejoin="round" stroke-width="3.996" rx="3.996"/><g filter="url(#h)"><circle cx="46.637" cy="40.129" r="5.995" fill="#ACACAE"/></g><circle cx="46.637" cy="40.129" r="5.995" stroke="#1F2024" stroke-width="3.996"/><rect width="13.488" height="7.993" x="29.153" y="36.132" fill="#ACACAE" stroke="#1F2024" stroke-linejoin="round" stroke-width="3.996" rx="3.996"/><path fill="#ACACAE" stroke="#1F2024" stroke-linejoin="round" stroke-width="3.996" d="M26.655 52.118H66.12v21.98H26.655v-21.98Z"/><path fill="#797A7C" stroke="#1F2024" stroke-linejoin="round" stroke-width="3.996" d="M34.648 68.103h27.476v5.995H26.655l7.993-5.995Z"/><path fill="#fff" stroke="#1F2024" stroke-linejoin="round" stroke-width="3.996" d="M34.648 52.118h27.476v15.986H34.648z"/><path fill="#fff" stroke="#1F2024" stroke-linejoin="round" stroke-width="3.996" d="M41.642 58.112h.5v3.996h-.5zM48.136 58.112h.5v3.996h-.5zM54.63 58.112h.5v3.996h-.5z"/><rect width="33.47" height="7.993" x="-3.818" y="57.613" fill="#797A7C" stroke="#1F2024" stroke-linejoin="round" stroke-width="3.996" rx="3.996"/></g><rect width="29.974" height="23.979" x="6.673" y="28.14" fill="#ACACAE" stroke="#1F2024" stroke-width="3.996" rx="11.989"/><g filter="url(#i)"><circle cx="24.657" cy="40.129" r="11.989" fill="#fff"/></g><circle cx="24.657" cy="40.129" r="11.989" stroke="#1F2024" stroke-width="3.996"/><circle cx="28.653" cy="40.129" r="3.996" fill="#FE204F" stroke="#1F2024" stroke-width="3.996"/><rect width="29.474" height="7.993" x="-18.305" y="36.132" fill="#ACACAE" stroke="#1F2024" stroke-linejoin="round" stroke-width="3.996" rx="3.996"/><path stroke="#1F2024" stroke-width="4.011" d="M2.676 6.672a4.01 4.01 0 0 1 4.011-4.01H86.9a4.01 4.01 0 0 1 4.01 4.01v72.192a4.01 4.01 0 0 1-4.01 4.01H6.687a4.01 4.01 0 0 1-4.01-4.01V6.672Z"/></g><defs><filter id="b" width="91.919" height="83.926" x=".678" y=".664" color-interpolation-filters="sRGB" filterUnits="userSpaceOnUse"><feFlood flood-opacity="0" result="BackgroundImageFix"/><feBlend in="SourceGraphic" in2="BackgroundImageFix" result="shape"/><feColorMatrix in="SourceAlpha" result="hardAlpha" values="0 0 0 0 0 0 0 0 0 0 0 0 0 0 0 0 0 0 127 0"/><feOffset dx="-11.989" dy="3.996"/><feComposite in2="hardAlpha" k2="-1" k3="1" operator="arithmetic"/><feColorMatrix values="0 0 0 0 1 0 0 0 0 1 0 0 0 0 1 0 0 0 0.25 0"/><feBlend in2="shape" result="effect1_innerShadow"/></filter><filter id="c" width="67.94" height="63.943" x="-5.317" y="10.655" color-interpolation-filters="sRGB" filterUnits="userSpaceOnUse"><feFlood flood-opacity="0" result="BackgroundImageFix"/><feColorMatrix in="SourceAlpha" values="0 0 0 0 0 0 0 0 0 0 0 0 0 0 0 0 0 0 127 0"/><feOffset dx="-3.996"/><feColorMatrix values="0 0 0 0 0 0 0 0 0 0 0 0 0 0 0 0 0 0 0.25 0"/><feBlend in2="BackgroundImageFix" result="effect1_dropShadow"/><feBlend in="SourceGraphic" in2="effect1_dropShadow" result="shape"/><feColorMatrix in="SourceAlpha" result="hardAlpha" values="0 0 0 0 0 0 0 0 0 0 0 0 0 0 0 0 0 0 127 0"/><feOffset dx="7.993"/><feComposite in2="hardAlpha" k2="-1" k3="1" operator="arithmetic"/><feColorMatrix values="0 0 0 0 0 0 0 0 0 0 0 0 0 0 0 0 0 0 0.25 0"/><feBlend in2="shape" result="effect2_innerShadow"/><feColorMatrix in="SourceAlpha" result="hardAlpha" values="0 0 0 0 0 0 0 0 0 0 0 0 0 0 0 0 0 0 127 0"/><feOffset dx="-7.993" dy="3.996"/><feComposite in2="hardAlpha" k2="-1" k3="1" operator="arithmetic"/><feColorMatrix values="0 0 0 0 1 0 0 0 0 1 0 0 0 0 1 0 0 0 0.25 0"/><feBlend in2="effect2_innerShadow" result="effect3_innerShadow"/></filter><filter id="d" width="27.975" height="27.975" x="54.131" y="26.142" color-interpolation-filters="sRGB" filterUnits="userSpaceOnUse"><feFlood flood-opacity="0" result="BackgroundImageFix"/><feBlend in="SourceGraphic" in2="BackgroundImageFix" result="shape"/><feColorMatrix in="SourceAlpha" result="hardAlpha" values="0 0 0 0 0 0 0 0 0 0 0 0 0 0 0 0 0 0 127 0"/><feOffset dx="7.993"/><feComposite in2="hardAlpha" k2="-1" k3="1" operator="arithmetic"/><feColorMatrix values="0 0 0 0 0 0 0 0 0 0 0 0 0 0 0 0 0 0 0.25 0"/><feBlend in2="shape" result="effect1_innerShadow"/><feColorMatrix in="SourceAlpha" result="hardAlpha" values="0 0 0 0 0 0 0 0 0 0 0 0 0 0 0 0 0 0 127 0"/><feOffset dx="-7.993" dy="3.996"/><feComposite in2="hardAlpha" k2="-1" k3="1" operator="arithmetic"/><feColorMatrix values="0 0 0 0 1 0 0 0 0 1 0 0 0 0 1 0 0 0 0.25 0"/><feBlend in2="effect1_innerShadow" result="effect2_innerShadow"/></filter><filter id="e" width="31.972" height="31.972" x="66.62" y="56.115" color-interpolation-filters="sRGB" filterUnits="userSpaceOnUse"><feFlood flood-opacity="0" result="BackgroundImageFix"/><feBlend in="SourceGraphic" in2="BackgroundImageFix" result="shape"/><feColorMatrix in="SourceAlpha" result="hardAlpha" values="0 0 0 0 0 0 0 0 0 0 0 0 0 0 0 0 0 0 127 0"/><feOffset dx="7.993"/><feComposite in2="hardAlpha" k2="-1" k3="1" operator="arithmetic"/><feColorMatrix values="0 0 0 0 0 0 0 0 0 0 0 0 0 0 0 0 0 0 0.25 0"/><feBlend in2="shape" result="effect1_innerShadow"/><feColorMatrix in="SourceAlpha" result="hardAlpha" values="0 0 0 0 0 0 0 0 0 0 0 0 0 0 0 0 0 0 127 0"/><feOffset dx="-7.993" dy="3.996"/><feComposite in2="hardAlpha" k2="-1" k3="1" operator="arithmetic"/><feColorMatrix values="0 0 0 0 1 0 0 0 0 1 0 0 0 0 1 0 0 0 0.25 0"/><feBlend in2="effect1_innerShadow" result="effect2_innerShadow"/></filter><filter id="f" width="31.972" height="31.972" x="-9.313" y="60.111" color-interpolation-filters="sRGB" filterUnits="userSpaceOnUse"><feFlood flood-opacity="0" result="BackgroundImageFix"/><feBlend in="SourceGraphic" in2="BackgroundImageFix" result="shape"/><feColorMatrix in="SourceAlpha" result="hardAlpha" values="0 0 0 0 0 0 0 0 0 0 0 0 0 0 0 0 0 0 127 0"/><feOffset dx="7.993"/><feComposite in2="hardAlpha" k2="-1" k3="1" operator="arithmetic"/><feColorMatrix values="0 0 0 0 0 0 0 0 0 0 0 0 0 0 0 0 0 0 0.25 0"/><feBlend in2="shape" result="effect1_innerShadow"/><feColorMatrix in="SourceAlpha" result="hardAlpha" values="0 0 0 0 0 0 0 0 0 0 0 0 0 0 0 0 0 0 127 0"/><feOffset dx="-7.993" dy="3.996"/><feComposite in2="hardAlpha" k2="-1" k3="1" operator="arithmetic"/><feColorMatrix values="0 0 0 0 1 0 0 0 0 1 0 0 0 0 1 0 0 0 0.25 0"/><feBlend in2="effect1_innerShadow" result="effect2_innerShadow"/></filter><filter id="g" width="77.931" height="83.426" x="-9.813" y="-7.329" color-interpolation-filters="sRGB" filterUnits="userSpaceOnUse"><feFlood flood-opacity="0" result="BackgroundImageFix"/><feColorMatrix in="SourceAlpha" values="0 0 0 0 0 0 0 0 0 0 0 0 0 0 0 0 0 0 127 0"/><feOffset dx="-3.996"/><feColorMatrix values="0 0 0 0 0 0 0 0 0 0 0 0 0 0 0 0 0 0 0.25 0"/><feBlend in2="BackgroundImageFix" result="effect1_dropShadow"/><feBlend in="SourceGraphic" in2="effect1_dropShadow" result="shape"/></filter><filter id="h" width="15.986" height="15.986" x="38.644" y="32.136" color-interpolation-filters="sRGB" filterUnits="userSpaceOnUse"><feFlood flood-opacity="0" result="BackgroundImageFix"/><feBlend in="SourceGraphic" in2="BackgroundImageFix" result="shape"/><feColorMatrix in="SourceAlpha" result="hardAlpha" values="0 0 0 0 0 0 0 0 0 0 0 0 0 0 0 0 0 0 127 0"/><feOffset dx="7.993"/><feComposite in2="hardAlpha" k2="-1" k3="1" operator="arithmetic"/><feColorMatrix values="0 0 0 0 0 0 0 0 0 0 0 0 0 0 0 0 0 0 0.25 0"/><feBlend in2="shape" result="effect1_innerShadow"/><feColorMatrix in="SourceAlpha" result="hardAlpha" values="0 0 0 0 0 0 0 0 0 0 0 0 0 0 0 0 0 0 127 0"/><feOffset dx="-7.993" dy="3.996"/><feComposite in2="hardAlpha" k2="-1" k3="1" operator="arithmetic"/><feColorMatrix values="0 0 0 0 1 0 0 0 0 1 0 0 0 0 1 0 0 0 0.25 0"/><feBlend in2="effect1_innerShadow" result="effect2_innerShadow"/></filter><filter id="i" width="27.975" height="27.975" x="10.669" y="26.142" color-interpolation-filters="sRGB" filterUnits="userSpaceOnUse"><feFlood flood-opacity="0" result="BackgroundImageFix"/><feBlend in="SourceGraphic" in2="BackgroundImageFix" result="shape"/><feColorMatrix in="SourceAlpha" result="hardAlpha" values="0 0 0 0 0 0 0 0 0 0 0 0 0 0 0 0 0 0 127 0"/><feOffset dx="7.993"/><feComposite in2="hardAlpha" k2="-1" k3="1" operator="arithmetic"/><feColorMatrix values="0 0 0 0 0 0 0 0 0 0 0 0 0 0 0 0 0 0 0.25 0"/><feBlend in2="shape" result="effect1_innerShadow"/><feColorMatrix in="SourceAlpha" result="hardAlpha" values="0 0 0 0 0 0 0 0 0 0 0 0 0 0 0 0 0 0 127 0"/><feOffset dx="-7.993" dy="3.996"/><feComposite in2="hardAlpha" k2="-1" k3="1" operator="arithmetic"/><feColorMatrix values="0 0 0 0 1 0 0 0 0 1 0 0 0 0 1 0 0 0 0.25 0"/><feBlend in2="effect1_innerShadow" result="effect2_innerShadow"/></filter></defs></svg>
